!!!OTL: Bei Sonnenuntergang.
!!!OTL-incipit:DORT SINKET DIE SONNE IM WESTEN
!!!COM: A. Muehling
!!!ARE: Europa, Mitteleuropa, Deutschland
!!!SCT: F0190
!!!TXL: @@DE
!!!YEM: Copyright 1995, estate of Helmut Schaffrath.
**kern	**text
*ICvox	*
*clefG2	*
*M6/8	*
*k[f#c#]	*
*D:	*
!LO:TX:a:t=Für 3 weibliche oder 3 männliche Stimmen.	!
!LO:TX:a:t=Heiter und nicht ʒu langſam.	!
!LO:TX:a:t=P:only the highest voice encoded:problem	!
{8a	1._Dort
=1	=1
8dd/	ſin-
8cc#/	-ket
8dd/	die
8.ff#/	Son-
16ee/	-ne
8dd/	in
=2	=2
(4ee/	We-
8cc#/)	.
4dd/}	-ſten
{8ff#	um-
=3	=3
8ee	-floſ-
8cc#	-ſen
8cc#	vom
8.ee^	gol-
16dd	-de-
8b	-nen
=4	=4
[4.a	Schein,
4a]}	.
{16a/L	bald
16cc#J	.
=5	=5
8.ee/	birgt
16dd/	ſie
8cc#/	ſich
8dd/	hin-
8ee	-ter
8ff#/	den
=6	=6
[4.gg/	Ae-
8gg/]	.
8ff#/}	-ſten,
{8ee/	bald
=7	=7
8.dd/	hin-
16cc#/	-ter
8dd/	dem
8ee/	blü-
8dd/	-henden
8cc#/	.
=8	=8
[4.dd/	Hain!
8dd/]	.
8r}	.
==	==
!!!AGN: Tageszeiten - Lied, Abend
!!!ONB: ESAC (Essen Associative Code) Database: FINK
!!!AMT: compound duple
!!!AIN: vox
!!!EED: Helmut Schaffrath
!!!EEV: 1.0
!!!GTL: Volkslieder
!!Text: Schwabe
!!!source: Musikalischer Hausschatz der Deutschen. Eine Sammlung von über 1000 Liedern und Gesängen mit Singstimmen und Klavierbegleitung. Leipzig, Litterarisches Verlags-Haus.
!!!page: 112
!!!URL-scan: https://www.digitale-sammlungen.de/en/view/bsb11144622?page=120,121
!!!ENC: Anna Maria Matuszewska
!!!EEV: 2024/07/26
*-	*-